X:458
T:The brigade
R:Hornpipe
C:Frank McCollum
O:Ireland
P:APB Brendan Mulvihill
D:Brendan Mulvihill: The Flax in Bloom
S:Brendan Mulvihill: The Flax in Bloom
Z:Transcription, chords:Mike Long
M:4/4
L:1/8
K:G
dc|]\
"G"BGDG AB~B2|"D"AFDF A2dc|"G"BGBd "C"gfde|"F"=fdcB "C"~c2dc|\
"G"BGDG AB~B2|
"D"AFDF A2dc|"G"(3(Bcd) Bd "D"cAFA|"G"BGGF GAdc||\
"G"BGDG AB~B2|"D"AFDF A2dc|
"G"BGBd "C"gfde|"Bb"=f2{g}fe "F"fdcA|\
"G"BGDG ~B2~B2|"D"AFDF A2dc|"G"(3(Bcd) Bd "D"cAFA|
"G"BG"D"GF "G"GABc|:"G"dB~B2 "C"ecAg|"D"fdaf "G"gdef|\
"G"gdBd "D"cAFA|"G"BGBd "C"~c2~c2|
"G"dB~B2 "C"ecAg|"D"fdaf "G"gdef|\
"G"gdBd "D"cAFA|[1 "G"BG"D"GF "G"GABc:|[2 "G"(3(Bcd) "D"AF "G"GAdc|]
